svgs/light/blender.svg

<svg xmlns="http://www.w3.org/2000/svg" viewBox="0 0 512 512"><!-- Font Awesome Pro 6.0.0-alpha2 by @fontawesome - https://fontawesome.com License - https://fontawesome.com/license (Commercial License) --><path d="M288 400C274.75 400 264 410.75 264 424S274.75 448 288 448S312 437.25 312 424S301.25 400 288 400ZM470.58 0H48C21.49 0 0 21.49 0 48V208C0 234.51 21.49 256 48 256H150.25L157.75 342.5C121.75 356.375 96 391.125 96 432V480C96 497.6 110.4 512 128 512H448C465.6 512 480 497.6 480 480V432C480 392.625 456.25 358.875 422.25 344L501.543 40.078C506.834 19.803 491.533 0 470.58 0ZM48 224C39.25 224 32 216.875 32 208V48C32 39.125 39.25 32 48 32H130.75L147.5 224H48ZM448 432V480H128V432C128 396.75 156.75 368 192 368H384C419.25 368 448 396.75 448 432ZM453.875 96H304C295.199 96 288 103.199 288 112S295.199 128 304 128H445.5L428.875 192H304C295.199 192 288 199.199 288 208S295.199 224 304 224H420.5L391.25 336H189.375L162.875 32H470.625L453.875 96Z"/></svg>

<svg xmlns="http://www.w3.org/2000/svg" viewBox="0 0 512 512"><!--! Font Awesome Pro 6.0.0-alpha3 by @fontawesome - https://fontawesome.com License - https://fontawesome.com/license (Commercial License) --><path d="M288 400c-13.25 0-24 10.75-24 24S274.8 448 288 448s24-10.75 24-24S301.3 400 288 400zM470.6 0H48C21.49 0 0 21.49 0 48v160C0 234.5 21.49 256 48 256h102.3l7.5 86.5C121.8 356.4 96 391.1 96 432L96 480c0 17.6 14.4 32 32 32h320c17.6 0 32-14.4 32-32L480 432c0-39.38-23.75-73.13-57.75-88l79.29-303.9C506.8 19.8 491.5 0 470.6 0zM48 224C39.25 224 32 216.9 32 208v-160C32 39.13 39.25 32 48 32h82.75L147.5 224H48zM448 432V480H128v-48c0-35.25 28.75-64 64-64h192C419.3 368 448 396.8 448 432zM453.9 96H304C295.2 96 288 103.2 288 111.1S295.2 128 304 128h141.5l-16.62 64H304C295.2 192 288 199.2 288 207.1S295.2 224 304 224h116.5l-29.25 112H189.4L162.9 32h307.8L453.9 96z"/></svg>
